X: 28
T:Green Blanket, the
R:reel
S:Mike Rafferty
H:Ballinakill Ceili Band 
N:played after the East Galway Shaskeen
Z:Lesl
M:4/4
L:1/8
Q:1/2=70
K:G
DGGF DGGE|FzAF cFAF|DGGF dzde|1 fdcA AGGF:|2 fdcA AGG2||
gagf dgbg|f2af dfaf|g2gf dgbg|agfa g3a|
bgaf gfde|fdcA AGG2|dggf g2ag|fdcA AGGF||
DGGF DGGE|FzAF cFAF|DGGF dzde|1 fdcA AGGF:|2 fdcA AGG2||
gagf dgbg|f2af dfaf|g2gf dgbg|agfa g3a|
bgaf gfde|fdcA AGG2|dggf g2ag|fdcA AGFA|G8||


